X:1
T:Jack Gardner's Crew
M:6/8
L:1/8
K:F
 G| D G3/2 G/2 FGA| BAG G D3/2 D/2| GGG D C3/2 C/2| DEF G2 G| D G3/2 G/2 FGA|\
 B A3/2 A/2 GDD| GGG DCC| DEF G3| d d3/2 c/2 d2 G/2G/2| B A3/2 A/2 G D2|\
 ddB cdG| BAG D2 G| D G3/2 G/2 FGA| B A3/2 G/2 ADD| GGG DC C/2C/2|\
 DEF G2||
